X: 070735
T: Gahan's
S: "Collection of the Dance Music of Ireland" (P. McNulty)
Z: B.Black
L: 1/8
M: C|
R: hornpipe
K: G
D2 | G>g (3fga gedB | GFGA BGDc | BdGB cBAG |\
FAdf eB (3cBA |
G>g (3fga gedB | GFGA BGDc | BdGB cAFG | AGGF G2 :|
K: D
FG | ABAG FAde | (3fga fe Adfa | gfeg fedf |\
(3efe (3dcB A2 FG|
ABAG FAde|(3fga fe Adfa|gfeg fedf|1 edce d2 :|\
|2 edce dB (3=cBA ||
